X: 2405
T: Saint Andrew's Day
P: Vale of Leven
C:Trad.
R:Reel (8x32)
B:RSCDS 24-5
Z:Anselm Lingnau <anselm@strathspey.org>
M:C
L:1/8
K:A
e|"A"A2AB ABcd|efec eaga|A2AB ABcA|"Bm"FBBA "E7"GABc|
  "A"A2AB ABcd|efec eaga|"D"fgag "A"fedc|"Bm"BcBA "E"GBBe||
  "A"ceef ecAB|ceef eaga|ceef ecAc|"Bm"EBBA "E7"GABd|\
  "A"ceef ecAB|
               ceef eaga|1"D"fgag "A"fedc|"Bm"BcBA "E7"GBBe:|2 \
                          "D"fgaf "A"ecBA|"E7"GBed "A"cAA|]
%%center Book24/2405-Saint_Andrews_Day-AL.abc

%%sep 1 1 500
%%sep 1 1 500

